svg/us/ca/monterey.svg

<?xml version="1.0" encoding="UTF-8" standalone="no"?>
<svg xmlns="http://www.w3.org/2000/svg"
   xmlns:dc="http://purl.org/dc/elements/1.1/"
   xmlns:cc="http://web.resource.org/cc/"
   xmlns:rdf="http://www.w3.org/1999/02/22-rdf-syntax-ns#"
   width="900" height="600">
  <metadata>
    <rdf:RDF>
      <cc:Work rdf:about="">
        <dc:format>image/svg+xml</dc:format>
        <dc:type rdf:resource="http://purl.org/dc/dcmitype/StillImage"/>
        <dc:title>Flag of Monterey, California</dc:title>
      </cc:Work>
    </rdf:RDF>
  </metadata>
  <rect style="fill:#ffffff" width="900" height="600"/>
  <rect y="300" height="300" width="450" style="fill:#006f36" />
  <rect x="450" height="300" width="450" style="fill:#006f36" />
  <path style="fill:#ffff00"
     d="M 810.25 0 L 450 240 V 300 H 540.0625 L 900 60.21875 V 0 H 810.25 z M 450 300 H 359.9375 L 0 539.78125 V 600 H 89.75 L 450 360 V 300 z"/>
  <path
     d="M 0 0 V 60.21875 L 359.9375 300 H 450 V 240 L 89.75 0 L 0 0 z M 450 300 V 360 L 810.25 600 H 900 V 539.78125 L 540.0625 300 H 450 z"/>
</svg>

<svg xmlns="http://www.w3.org/2000/svg" width="900" height="600"><path fill="#fff" d="M0 0h900v600H0z"/><path fill="#006f36" d="M0 300h450v300H0zM450 0h450v300H450z"/><path d="M810.25 0L450 240v60h90.063L900 60.219V0h-89.75zM450 300h-90.063L0 539.781V600h89.75L450 360v-60z" fill="#ff0"/><path d="M0 0v60.219L359.938 300H450v-60L89.75 0H0zm450 300v60l360.25 240H900v-60.219L540.062 300H450z"/></svg>
